X:1
T:Title
%%score { ( 1 3 ) | ( 2 4 ) }
L:1/8
M:4/4
K:Eb
V:1 treble nm="Grand Piano"
V:3 treble 
V:2 bass 
V:4 bass 
V:1
 z4 z2 z[Q:1/4=100] B | z2 c2 z2 E2 | [B,D]2 B>B [DAB]3 B | [DAB]2 d>c [DAB]2 A>A | %4
 [EG]2 [Gc]>G [EGB]3 B | [EGB]2 c>B [B,EG]2 B,->[B,E] | [B,D]2 B>B [DAB]3 B | %7
 [DAB]2 d>c [DAB]2 [DA]>D |[M:7/8] [DG]2 [DG]>[DF] E3 |[M:1/8] B | %10
[M:4/4] [Ge]2 [EGe]2 [Ge]2 [EGB]2 | [Gd]2 [EGd]2 [EGB]3 [GB] | [B,EGB]2 c>B G2 E>E | %13
 .[=A,EF]2 [EF]>G [DF]3 [AB] | [EGe]2 e>e [EGe]3 B | [EAe]2 e>e [E_G=Ae]3 [Ae] | %16
 [EGe]2 [Gd]2 [EGB]2 E>F |[M:7/8] [B,EG]2 [B,DG]>[A,DF] [G,B,E]3 |] %18
V:2
 z4 z2 z [EG] | [E,,E,]2 [B,,,B,,]2 [E,,E,]2 [B,,,B,,]2 | [F,,F,]2 [B,,,B,,]2 [F,,F,]2 z [DA] | %3
 [F,,F,]2 [B,,,B,,]2 [F,,F,]2 [B,,,B,,]2 | [E,,E,]2 [B,,,B,,]2 [E,,E,]2 z [EG] | %5
 [E,,E,]2 [B,,,B,,]2 [E,,E,]2 [B,,,B,,]2 | [F,,F,]2 [B,,,B,,]2 [F,,F,]2 z [DA] | %7
 [F,,F,]2 [B,,,B,,]2 [F,,F,]2 [B,,,B,,]2 |[M:7/8] [B,,B,]2 [B,,B,]>[B,,A,] [E,G,B,]3 | %9
[M:1/8] [EG] |[M:4/4] [E,B,E]2 z z/[K:treble] e/[K:bass] [E,B,E]2 z z/[K:treble] B/ | %11
 [E,B,E]2 z z/[K:treble] c/[K:bass] E,2 z E | E,2 B,,2 [E,B,E]2 [B,,E,G,]2 | F,2 z z/ E/ F,2 z D | %14
 [E,,E,]2 [E,,E,]2 [_D,,_D,]2 z [EG] | [C,,C,]2 [C,,C,]2 [=B,,,=B,,]2 z [E_G] | %16
 z2 [E,B,E]2[K:treble][K:bass] z2 [C,F,=A,]2 |[M:7/8] B,,2 B,,>B,, E,3 |] %18
V:3
 x8 | [EGB]2 [EG]->[EGB] [B,EG]2 B,->[B,E] | z2 [DA]2 z4 | z2 [DA]2 z2 D2 | z2 E2 z4 | %5
 z2 [EG]2 z2 E2 | z2 [DA]2 z4 | z2 [DA]2 z4 |[M:7/8] x7 |[M:1/8] x |[M:4/4] x8 | z4 B,2 z2 | %12
 z2 [EG]2 z4 | z4 B,2 z2 | z2 [EG]2 z4 | z2 [EA]2 z4 | x8 |[M:7/8] x7 |] %18
V:4
 x8 | x8 | z4 z2 [B,,,B,,]2 | x8 | z4 z2 [B,,,B,,]2 | x8 | z4 z2 [B,,,B,,]2 | x8 |[M:7/8] x7 | %9
[M:1/8] x |[M:4/4] z2 B,,2[K:treble][K:bass] z2 B,,2[K:treble] | %11
 z2 B,,2[K:treble][K:bass] z2 B,,2 | x8 | z2 C,2 z2 B,,2 | z4 z2 [_D,,_D,]2 | z4 z2 [=B,,,=B,,]2 | %16
 [B,,,B,,]2 z z/[K:treble] c/[K:bass] B,,2 z z/ E/ |[M:7/8] x7 |] %18

